Numix-Circle/48x48/apps/universalindentgui.svg

<?xml version="1.0" encoding="UTF-8" standalone="no"?>
<svg
   xmlns:dc="http://purl.org/dc/elements/1.1/"
   xmlns:cc="http://creativecommons.org/ns#"
   xmlns:rdf="http://www.w3.org/1999/02/22-rdf-syntax-ns#"
   xmlns:svg="http://www.w3.org/2000/svg"
   xmlns="http://www.w3.org/2000/svg"
   xmlns:xlink="http://www.w3.org/1999/xlink"
   xmlns:sodipodi="http://sodipodi.sourceforge.net/DTD/sodipodi-0.dtd"
   xmlns:inkscape="http://www.inkscape.org/namespaces/inkscape"
   width="48"
   viewBox="0 0 13.546667 13.546667"
   height="48"
   id="svg2"
   version="1.1"
   inkscape:version="0.91 r13725"
   sodipodi:docname="universalindentgui.svg">
  <metadata
     id="metadata331">
    <rdf:RDF>
      <cc:Work
         rdf:about="">
        <dc:format>image/svg+xml</dc:format>
        <dc:type
           rdf:resource="http://purl.org/dc/dcmitype/StillImage" />
        <dc:title></dc:title>
      </cc:Work>
    </rdf:RDF>
  </metadata>
  <sodipodi:namedview
     pagecolor="#ffffff"
     bordercolor="#666666"
     borderopacity="1"
     objecttolerance="10"
     gridtolerance="10"
     guidetolerance="10"
     inkscape:pageopacity="0"
     inkscape:pageshadow="2"
     inkscape:window-width="1366"
     inkscape:window-height="718"
     id="namedview329"
     showgrid="false"
     inkscape:zoom="1"
     inkscape:cx="23.07706"
     inkscape:cy="25.241734"
     inkscape:window-x="0"
     inkscape:window-y="25"
     inkscape:window-maximized="1"
     inkscape:current-layer="layer3">
    <inkscape:grid
       type="xygrid"
       id="grid3308" />
  </sodipodi:namedview>
  <defs
     id="defs4">
    <linearGradient
       inkscape:collect="always"
       xlink:href="#linearGradient3798-7"
       id="linearGradient4033"
       x1="-27"
       y1="13"
       x2="-24"
       y2="13"
       gradientUnits="userSpaceOnUse" />
    <linearGradient
       id="linearGradient3798-7">
      <stop
         style="stop-color:#ede9ce;stop-opacity:1;"
         offset="0"
         id="stop3800-5" />
      <stop
         style="stop-color:#f5f2de;stop-opacity:1;"
         offset="1"
         id="stop3802-3" />
    </linearGradient>
  </defs>
  <g
     inkscape:groupmode="layer"
     id="layer1"
     inkscape:label="Shadow"
     sodipodi:insensitive="true">
    <path
       style="opacity:0.05;fill:#000000;fill-opacity:1;stroke:none"
       d="M 25,2 C 12.297451,2 2,12.297451 2,25 2,31.367153 4.6007106,37.116628 8.78125,41.28125 12.865755,44.99361 18.29568,47.25 24.25,47.25 c 12.702549,0 23,-10.297451 23,-23 0,-5.95432 -2.25639,-11.384245 -5.96875,-15.46875 C 37.116628,4.6007105 31.367153,2 25,2 z M 41.28125,8.78125 C 45.135604,12.894061 47.5,18.418655 47.5,24.5 c 0,12.702549 -10.297451,23 -23,23 C 18.418655,47.5 12.894061,45.135604 8.78125,41.28125 12.940939,45.4251 18.664604,48 25,48 37.702549,48 48,37.702549 48,25 48,18.664604 45.4251,12.940939 41.28125,8.78125 z"
       transform="scale(0.28222223,0.28222223)"
       id="path3978"
       inkscape:connector-curvature="0" />
    <path
       style="opacity:0.1;fill:#000000;fill-opacity:1;stroke:none"
       d="M 41.28125,8.78125 C 44.99361,12.865755 47.25,18.29568 47.25,24.25 c 0,12.702549 -10.297451,23 -23,23 -5.95432,0 -11.384245,-2.25639 -15.46875,-5.96875 C 12.894061,45.135604 18.418655,47.5 24.5,47.5 c 12.702549,0 23,-10.297451 23,-23 0,-6.081345 -2.364396,-11.605939 -6.21875,-15.71875 z"
       transform="scale(0.28222223,0.28222223)"
       id="path3976"
       inkscape:connector-curvature="0" />
    <path
       transform="matrix(4.3274074,0,0,3.2455556,117.19278,-35.348334)"
       d="m -24,13 a 1.5,2 0 1 1 -3,0 1.5,2 0 1 1 3,0 z"
       sodipodi:ry="2"
       sodipodi:rx="1.5"
       sodipodi:cy="13"
       sodipodi:cx="-25.5"
       id="path3952"
       style="opacity:0.2;fill:#000000;fill-opacity:1;stroke:none"
       sodipodi:type="arc" />
  </g>
  <g
     inkscape:groupmode="layer"
     id="layer2"
     inkscape:label="Base">
    <path
       sodipodi:type="arc"
       style="fill:url(#linearGradient4033);fill-opacity:1.0;stroke:none"
       id="path3942"
       sodipodi:cx="-25.5"
       sodipodi:cy="13"
       sodipodi:rx="1.5"
       sodipodi:ry="2"
       d="m -24,13 a 1.5,2 0 1 1 -3,0 1.5,2 0 1 1 3,0 z"
       transform="matrix(0,-4.3274075,3.2455556,0,-35.418894,-103.57556)" />
    <path
       style="opacity:0.1;fill:#000000;fill-opacity:1;stroke:none"
       d="M 40.03125 7.53125 C 43.74361 11.615755 46 17.04568 46 23 C 46 35.702549 35.702549 46 23 46 C 17.04568 46 11.615755 43.74361 7.53125 40.03125 C 11.709416 44.322508 17.537578 47 24 47 C 36.702549 47 47 36.702549 47 24 C 47 17.537578 44.322508 11.709416 40.03125 7.53125 z "
       id="path4027"
       transform="scale(0.28222223,0.28222223)" />
  </g>
  <g
     inkscape:groupmode="layer"
     id="layer3"
     inkscape:label="Symbol">
    <path
       id="path4114"
       d="M 9.8777781,4.2333337"
       style="fill:#000000;fill-opacity:1;fill-rule:nonzero;stroke:none;opacity:0.1"
       inkscape:connector-curvature="0" />
    <path
       style="fill:#f9f9f9;fill-opacity:1;fill-rule:nonzero;stroke:none"
       d="M 9.5955558,3.668889"
       id="path53" />
    <g
       id="g4231"
       style="fill:#000000;fill-opacity:0.09803922"
       transform="matrix(0.28222223,0,0,0.28222223,0.28222231,0.28222228)">
      <rect
         style="fill:#000000;fill-opacity:0.09803922;fill-rule:evenodd;stroke:none;stroke-width:1px;stroke-linecap:butt;stroke-linejoin:miter;stroke-opacity:1"
         id="rect4233"
         width="15"
         height="3"
         x="21"
         y="12" />
      <rect
         y="33"
         x="21"
         height="3"
         width="15"
         id="rect4235"
         style="fill:#000000;fill-opacity:0.09803922;fill-rule:evenodd;stroke:none;stroke-width:1px;stroke-linecap:butt;stroke-linejoin:miter;stroke-opacity:1" />
      <rect
         style="fill:#000000;fill-opacity:0.09803922;fill-rule:evenodd;stroke:none;stroke-width:1px;stroke-linecap:butt;stroke-linejoin:miter;stroke-opacity:1"
         id="rect4237"
         width="10"
         height="3"
         x="26"
         y="26" />
      <rect
         y="19.1"
         x="26"
         height="3"
         width="10"
         id="rect4239"
         style="fill:#000000;fill-opacity:0.09803922;fill-rule:evenodd;stroke:none;stroke-width:1px;stroke-linecap:butt;stroke-linejoin:miter;stroke-opacity:1" />
      <path
         style="fill:#000000;fill-opacity:0.09803922;stroke:none"
         d="m 12,14 0,20 2,0 c 1,-5 4,-8 9,-10 -5,-2 -8,-6 -9,-10 z"
         id="path4241"
         inkscape:connector-curvature="0"
         sodipodi:nodetypes="cccccc" />
    </g>
    <g
       transform="scale(0.28222223,0.28222223)"
       id="g4224">
      <rect
         y="12"
         x="21"
         height="3"
         width="15"
         id="rect3391"
         style="fill:#8989cb;fill-opacity:1;fill-rule:evenodd;stroke:none;stroke-width:1px;stroke-linecap:butt;stroke-linejoin:miter;stroke-opacity:1" />
      <rect
         style="fill:#8989cb;fill-opacity:1;fill-rule:evenodd;stroke:none;stroke-width:1px;stroke-linecap:butt;stroke-linejoin:miter;stroke-opacity:1"
         id="rect4193"
         width="15"
         height="3"
         x="21"
         y="33" />
      <rect
         y="26"
         x="26"
         height="3"
         width="10"
         id="rect4195"
         style="fill:#49a749;fill-opacity:1;fill-rule:evenodd;stroke:none;stroke-width:1px;stroke-linecap:butt;stroke-linejoin:miter;stroke-opacity:1" />
      <rect
         style="fill:#49a749;fill-opacity:1;fill-rule:evenodd;stroke:none;stroke-width:1px;stroke-linecap:butt;stroke-linejoin:miter;stroke-opacity:1"
         id="rect4197"
         width="10"
         height="3"
         x="26"
         y="19.1" />
      <path
         sodipodi:nodetypes="cccccc"
         inkscape:connector-curvature="0"
         id="path4199"
         d="m 12,14 0,20 2,0 c 1,-5 4,-8 9,-10 -5,-2 -8,-6 -9,-10 z"
         style="fill:#49a749;fill-opacity:1;stroke:none" />
    </g>
  </g>
</svg>

<svg xmlns="http://www.w3.org/2000/svg" width="48" viewBox="0 0 13.546667 13.546667" height="48">
 <defs>
  <linearGradient id="linearGradient4033" x1="-27" x2="-24" gradientUnits="userSpaceOnUse">
   <stop style="stop-color:#ede9ce;stop-opacity:1"/>
   <stop offset="1" style="stop-color:#f5f2de;stop-opacity:1"/>
  </linearGradient>
 </defs>
 <g>
  <path d="m 25 2 c -12.703 0 -23 10.297 -23 23 0 6.367 2.601 12.12 6.781 16.281 4.085 3.712 9.514 5.969 15.469 5.969 c 12.703 0 23 -10.297 23 -23 0 -5.954 -2.256 -11.384 -5.969 -15.469 c -4.165 -4.181 -9.914 -6.781 -16.281 -6.781 z m 16.281 6.781 c 3.854 4.113 6.219 9.637 6.219 15.719 c 0 12.703 -10.297 23 -23 23 c -6.081 0 -11.606 -2.364 -15.719 -6.219 4.16 4.144 9.883 6.719 16.219 6.719 12.703 0 23 -10.297 23 -23 0 -6.335 -2.575 -12.06 -6.719 -16.219 z" transform="scale(0.28222223,0.28222223)" style="fill:#000;opacity:0.05;fill-opacity:1;stroke:none"/>
  <path d="m 41.28 8.781 c 3.712 4.085 5.969 9.514 5.969 15.469 c 0 12.703 -10.297 23 -23 23 -5.954 0 -11.384 -2.256 -15.469 -5.969 c 4.113 3.854 9.637 6.219 15.719 6.219 c 12.703 0 23 -10.297 23 -23 0 -6.081 -2.364 -11.606 -6.219 -15.719 z" transform="scale(0.28222223,0.28222223)" style="fill:#000;opacity:0.1;fill-opacity:1;stroke:none"/>
  <path transform="matrix(4.3274074,0,0,3.2455556,117.19278,-35.348334)" d="m -24 13 a 1.5 2 0 1 1 -3 0 1.5 2 0 1 1 3 0 z" style="fill:#000;opacity:0.2;fill-opacity:1;stroke:none"/>
 </g>
 <g>
  <path d="m -24 13 a 1.5 2 0 1 1 -3 0 1.5 2 0 1 1 3 0 z" transform="matrix(0,-4.3274075,3.2455556,0,-35.418894,-103.57556)" style="fill:url(#linearGradient4033);fill-opacity:1;stroke:none"/>
  <path d="m 40.03 7.531 c 3.712 4.085 5.969 9.514 5.969 15.469 c 0 12.703 -10.297 23 -23 23 c -5.954 0 -11.384 -2.256 -15.469 -5.969 c 4.178 4.291 10.01 6.969 16.469 6.969 c 12.703 0 23 -10.297 23 -23 c 0 -6.462 -2.677 -12.291 -6.969 -16.469 z" transform="scale(0.28222223,0.28222223)" style="fill:#000;opacity:0.1;fill-opacity:1;stroke:none"/>
 </g>
 <g>
  <g transform="matrix(0.28222223,0,0,0.28222223,0.28222231,0.28222228)" style="fill:#000;fill-opacity:0.098">
   <rect width="15" height="3" x="21" y="12" style="stroke:none;fill-rule:evenodd"/>
   <rect y="33" x="21" height="3" width="15" style="stroke:none;fill-rule:evenodd"/>
   <rect width="10" height="3" x="26" y="26" style="stroke:none;fill-rule:evenodd"/>
   <rect y="19.1" x="26" height="3" width="10" style="stroke:none;fill-rule:evenodd"/>
   <path d="m 12 14 0 20 2 0 c 1 -5 4 -8 9 -10 -5 -2 -8 -6 -9 -10 z" style="stroke:none"/>
  </g>
  <g transform="scale(0.28222223,0.28222223)">
   <rect y="12" x="21" height="3" width="15" style="fill:#8989cb;fill-opacity:1;stroke:none;fill-rule:evenodd"/>
   <rect width="15" height="3" x="21" y="33" style="fill:#8989cb;fill-opacity:1;stroke:none;fill-rule:evenodd"/>
   <rect y="26" x="26" height="3" width="10" style="fill:#49a749;fill-opacity:1;stroke:none;fill-rule:evenodd"/>
   <rect width="10" height="3" x="26" y="19.1" style="fill:#49a749;fill-opacity:1;stroke:none;fill-rule:evenodd"/>
   <path d="m 12 14 0 20 2 0 c 1 -5 4 -8 9 -10 -5 -2 -8 -6 -9 -10 z" style="fill:#49a749;fill-opacity:1;stroke:none"/>
  </g>
 </g>
</svg>
